src/images/community/grow.svg

<svg fill="none" height="30" viewBox="0 0 30 30" width="30" xmlns="http://www.w3.org/2000/svg"><path d="m24.375 12.1875c.9942-.0012 1.9473-.3967 2.6503-1.0997s1.0985-1.65612 1.0997-2.6503v-2.8125h-2.8125c-.9599.00142-1.8822.37279-2.5753 1.03688-.4857-.88123-1.1987-1.61616-2.0648-2.12828s-1.8537-.78271-2.8599-.7836h-2.8125v2.8125c.0017 1.49131.5949 2.92104 1.6494 3.9756 1.0546 1.0545 2.4843 1.6477 3.9756 1.6494h.9375v12.1875h-11.25v-4.6875h.9375c.9942-.0012 1.9473-.3967 2.6503-1.0997s1.0985-1.6561 1.0997-2.6503v-2.8125h-2.8125c-.9599.0014-1.8822.3728-2.57531 1.0369-.48567-.8813-1.19868-1.6162-2.0648-2.1283-.86613-.5121-1.85369-.7827-2.85989-.7836h-2.8125v2.8125c.00174 1.4913.59493 2.921 1.64944 3.9756 1.05452 1.0545 2.48425 1.6477 3.97556 1.6494h.9375v4.6875h-6.5625v1.875h26.25v-1.875h-4.6875v-12.1875zm-.9375-2.8125c.0005-.49713.1982-.97375.5497-1.32528.3515-.35152.8282-.54922 1.3253-.54972h.9375v.9375c-.0005.49713-.1982.97375-.5497 1.32528-.3515.35152-.8282.54922-1.3253.54972h-.9375zm-13.125 7.5c.0005-.4971.1982-.9738.5497-1.3253s.8282-.5492 1.3253-.5497h.9375v.9375c-.0005.4971-.1982.9738-.5497 1.3253s-.8282.5492-1.3253.5497h-.9375zm-1.875.9375h-.9375c-.99418-.0012-1.94729-.3967-2.65028-1.0997s-1.09848-1.6561-1.09972-2.6503v-.9375h.9375c.99418.0012 1.94729.3967 2.65028 1.0997s1.09848 1.6561 1.09972 2.6503zm13.125-7.5h-.9375c-.9942-.0012-1.9473-.39673-2.6503-1.09972s-1.0985-1.6561-1.0997-2.65028v-.9375h.9375c.9942.00124 1.9473.39673 2.6503 1.09972s1.0985 1.6561 1.0997 2.65028z" fill="#000"/></svg>

<svg width="30" height="30" viewBox="0 0 30 30" fill="none" xmlns="http://www.w3.org/2000/svg">
<path d="M24.375 12.1875C25.3692 12.1863 26.3223 11.7908 27.0253 11.0878C27.7283 10.3848 28.1238 9.43168 28.125 8.4375V5.625H25.3125C24.3526 5.62642 23.4303 5.99779 22.7372 6.66188C22.2515 5.78065 21.5385 5.04572 20.6724 4.5336C19.8063 4.02148 18.8187 3.75089 17.8125 3.75H15V6.5625C15.0017 8.05381 15.5949 9.48354 16.6494 10.5381C17.704 11.5926 19.1337 12.1858 20.625 12.1875H21.5625V24.375H10.3125V19.6875H11.25C12.2442 19.6863 13.1973 19.2908 13.9003 18.5878C14.6033 17.8848 14.9988 16.9317 15 15.9375V13.125H12.1875C11.2276 13.1264 10.3053 13.4978 9.61219 14.1619C9.12652 13.2806 8.41351 12.5457 7.54739 12.0336C6.68126 11.5215 5.6937 11.2509 4.6875 11.25H1.875V14.0625C1.87674 15.5538 2.46993 16.9835 3.52444 18.0381C4.57896 19.0926 6.00869 19.6858 7.5 19.6875H8.4375V24.375H1.875V26.25H28.125V24.375H23.4375V12.1875H24.375ZM23.4375 9.375C23.438 8.87787 23.6357 8.40125 23.9872 8.04972C24.3387 7.6982 24.8154 7.5005 25.3125 7.5H26.25V8.4375C26.2495 8.93463 26.0518 9.41125 25.7003 9.76278C25.3488 10.1143 24.8721 10.312 24.375 10.3125H23.4375V9.375ZM10.3125 16.875C10.313 16.3779 10.5107 15.9012 10.8622 15.5497C11.2137 15.1982 11.6904 15.0005 12.1875 15H13.125V15.9375C13.1245 16.4346 12.9268 16.9113 12.5753 17.2628C12.2238 17.6143 11.7471 17.812 11.25 17.8125H10.3125V16.875ZM8.4375 17.8125H7.5C6.50582 17.8113 5.55271 17.4158 4.84972 16.7128C4.14673 16.0098 3.75124 15.0567 3.75 14.0625V13.125H4.6875C5.68168 13.1262 6.63479 13.5217 7.33778 14.2247C8.04077 14.9277 8.43626 15.8808 8.4375 16.875V17.8125ZM21.5625 10.3125H20.625C19.6308 10.3113 18.6777 9.91577 17.9747 9.21278C17.2717 8.50979 16.8762 7.55668 16.875 6.5625V5.625H17.8125C18.8067 5.62624 19.7598 6.02173 20.4628 6.72472C21.1658 7.42771 21.5613 8.38082 21.5625 9.375V10.3125Z" fill="black"/>
</svg>
